dist/svg/arrows.svg

<!-- Generated by Trend Micro Style Portal -->
<svg version="1.1" xmlns="http://www.w3.org/2000/svg" width="16" height="16" viewBox="0 0 16 16">
  <title>arrows</title>
  <path fill="rgb(34,34,34)" d="M13 11v-2h-4v4h2l-3 3-3-3h2v-4h-4v2l-3-3 3-3v2h4v-4h-2l3-3 3 3h-2v4h4v-2l3 3z"></path>
</svg>

<svg width="16" height="16" viewBox="0 0 16 16" fill="rgb(34, 34, 34)" xmlns="http://www.w3.org/2000/svg"><title>arrows</title><path d="M13 11V9H9V13H11L8 16L5 13H7V9H3V11L0 8L3 5V7H7V3H5L8 0L11 3H9V7H13V5L16 8L13 11Z" fill="rgb(34, 34, 34)" fill-opacity="1.00"/></svg>
